X: 578
T: Lilla Orevals
S: efter [[!Timas Hans Hansson]] 
S: Känd genom [[Grupper/Hoven Droven]]
O: Dalarna, Ore
R: Vals
Z: Håkan Lidén, 2008-09-28
D: Hoven Droven - Grov
M: 3/4
L: 1/8
K: Ddor
ag bg a2 | ef ge f2 | ed g2 g2 | ga fe fg | ag bg a2 |  ef ge f2 | 
ed a2 ^ce |1 d4 a2 :|2 d3 efa |: e3 d^cd | A3 BA^G | AB ^cd ef | 
d^c de fa | e3 d^cd | A3 BA^G | AB ^cd ef |1 d3 efa :|2 d4 z2 |]
(:musicend:)

(:music:)
